X:1
T:Berlin (Goudimel), 77.77.77
T:Berlin (Goudimel), 77.77.77
T:Claude Goudimel (1514-1572)
T:Public Domain Courtesy of the Cyber Hymnal™
C:Claude Goudimel (1514-1572)
Z:Public Domain
Z:Courtesy of the Cyber Hymnal™
%%score ( 1 2 ) ( 3 4 )
L:1/8
Q:1/4=110
M:4/4
K:G
V:1 treble 
V:2 treble 
V:3 bass 
V:4 bass 
V:1
 [DG]2 [DA]2 | [DB]2 [CA]2 G2 ([DF][^CE]) | D4 [B,G]2 [DA]2 | [DB]2 [Ec]2 [DB]2 [CA]2 | %4
 [B,G]4 [DB]2 [Gc]2 | [Fd]2 c2 B2 A2 | [GB]4 [Gd]2 [=Fd]2 | [Ee]2 [Gd]2 [Ac]2 [GB]2 | %8
 [FA]4 [GB]2 [Gd]2 | [Dc]2 [DB]2 [EG]2 [EA]2 | [FB]4 [GB]2 [Gd]2 | c2 [GB]2 [GA]2 [FA]2 | [DG]4 |] %13
V:2
 x4 | x4 (B,D) x2 | D4 x4 | x8 | x8 | x2 (ED) (DG) (GF) | x8 | x8 | x8 | x8 | x8 | (GF) x6 | x4 |] %13
V:3
 [G,B,]2 [F,A,]2 | G,2 [D,F,]2 (G,B,) (A,G,) | [D,F,]4 [E,G,]2 [D,F,]2 | %3
 G,2 [C,G,]2 [D,G,]2 [D,F,]2 | [G,,G,]4 G,2 [E,G,]2 | [D,A,]2 ([E,G,][F,A,]) [G,B,]2 [D,D]2 | %6
 [G,D]4 [B,D]2 [G,B,]2 | C2 [B,D]2 [F,D]2 [G,D]2 | [D,D]4 [G,D]2 [G,B,]2 | %9
 [F,A,]2 G,2 [E,B,]2 [C,E]2 | [B,,^D]4 [G,=D]2 B,2 | [A,C]2 [G,D]2 [C,E]2 (DC) | [G,,B,]4 |] %13
V:4
 x4 | G,2 E,2 A,,2 x2 | x8 | G,2 x6 | x4 G,2 x2 | x8 | x8 | C2 x6 | x8 | x2 G,2 x4 | x6 B,2 | %11
 x6 D,2 | x4 |] %13

